public/images/case-studies/speakinc/feature-icon1.svg

<svg width="72" height="72" viewBox="0 0 72 72" fill="none" xmlns="http://www.w3.org/2000/svg">
<path d="M60.75 32.625C60.1842 32.6285 59.6197 32.6797 59.0625 32.778C57.4803 30.1927 55.3073 28.0197 52.722 26.4375C52.978 24.9817 52.9121 23.4876 52.5291 22.06C52.146 20.6324 51.455 19.306 50.5047 18.1739C49.5543 17.0419 48.3676 16.1316 47.0279 15.5071C45.6882 14.8826 44.2281 14.559 42.75 14.559C41.2719 14.559 39.8117 14.8826 38.472 15.5071C37.1324 16.1316 35.9457 17.0419 34.9953 18.1739C34.0449 19.306 33.354 20.6324 32.9709 22.06C32.5878 23.4876 32.522 24.9817 32.778 26.4375C30.192 28.0189 28.0189 30.192 26.4375 32.778C24.9817 32.522 23.4876 32.5878 22.06 32.9709C20.6324 33.354 19.306 34.0449 18.1739 34.9953C17.0419 35.9457 16.1316 37.1324 15.5071 38.472C14.8826 39.8117 14.559 41.2719 14.559 42.75C14.559 44.2281 14.8826 45.6882 15.5071 47.0279C16.1316 48.3676 17.0419 49.5543 18.1739 50.5047C19.306 51.455 20.6324 52.146 22.06 52.5291C23.4876 52.9121 24.9817 52.978 26.4375 52.722C28.0189 55.3079 30.192 57.4811 32.778 59.0625C32.522 60.5182 32.5878 62.0124 32.9709 63.44C33.354 64.8676 34.0449 66.194 34.9953 67.326C35.9457 68.4581 37.1324 69.3684 38.472 69.9929C39.8117 70.6174 41.2719 70.941 42.75 70.941C44.2281 70.941 45.6882 70.6174 47.0279 69.9929C48.3676 69.3684 49.5543 68.4581 50.5047 67.326C51.455 66.194 52.146 64.8676 52.5291 63.44C52.9121 62.0124 52.978 60.5182 52.722 59.0625C55.307 57.48 57.48 55.307 59.0625 52.722C60.4478 52.9654 61.8685 52.9175 63.2343 52.5814C64.6001 52.2453 65.8808 51.6284 66.9949 50.7699C68.109 49.9114 69.032 48.8302 69.7051 47.5952C70.3782 46.3602 70.7866 44.9985 70.9043 43.597C71.022 42.1954 70.8464 40.7847 70.3887 39.4547C69.9309 38.1248 69.2011 36.9048 68.2458 35.8726C67.2905 34.8403 66.1305 34.0184 64.84 33.4592C63.5494 32.9001 62.1564 32.616 60.75 32.625ZM52.0762 56.8125C51.3016 54.979 50.0038 53.4145 48.3449 52.3145C46.6861 51.2145 44.7398 50.6278 42.7494 50.6278C40.759 50.6278 38.8127 51.2145 37.1539 52.3145C35.495 53.4145 34.1972 54.979 33.4226 56.8125C31.5444 55.565 29.9345 53.9548 28.6875 52.0762C30.5206 51.3015 32.0848 50.0036 33.1846 48.3449C34.2843 46.6862 34.8708 44.7402 34.8708 42.75C34.8708 40.7598 34.2843 38.8138 33.1846 37.1551C32.0848 35.4963 30.5206 34.1985 28.6875 33.4237C29.9342 31.545 31.5441 29.9346 33.4226 28.6875C34.1972 30.521 35.495 32.0855 37.1539 33.1855C38.8127 34.2855 40.759 34.8722 42.7494 34.8722C44.7398 34.8722 46.6861 34.2855 48.3449 33.1855C50.0038 32.0855 51.3016 30.521 52.0762 28.6875C53.9545 29.9348 55.5647 31.5446 56.8125 33.4226C54.9786 34.197 53.4138 35.4949 52.3135 37.1539C51.2133 38.8128 50.6265 40.7593 50.6265 42.75C50.6265 44.7406 51.2133 46.6871 52.3135 48.3461C53.4138 50.0051 54.9786 51.3029 56.8125 52.0774C55.5648 53.9554 53.9546 55.5653 52.0762 56.8125Z" fill="#EAEAEA"/>
<path d="M4.5 16.875H32.625C33.5201 16.875 34.3786 16.5194 35.0115 15.8865C35.6444 15.2536 36 14.3951 36 13.5V4.5C36 3.60489 35.6444 2.74645 35.0115 2.11351C34.3786 1.48058 33.5201 1.125 32.625 1.125H4.5C3.60489 1.125 2.74645 1.48058 2.11351 2.11351C1.48058 2.74645 1.125 3.60489 1.125 4.5V13.5C1.125 14.3951 1.48058 15.2536 2.11351 15.8865C2.74645 16.5194 3.60489 16.875 4.5 16.875ZM3.375 4.5C3.375 4.20163 3.49353 3.91548 3.7045 3.7045C3.91548 3.49353 4.20163 3.375 4.5 3.375H32.625C32.9234 3.375 33.2095 3.49353 33.4205 3.7045C33.6315 3.91548 33.75 4.20163 33.75 4.5V13.5C33.75 13.7984 33.6315 14.0845 33.4205 14.2955C33.2095 14.5065 32.9234 14.625 32.625 14.625H4.5C4.20163 14.625 3.91548 14.5065 3.7045 14.2955C3.49353 14.0845 3.375 13.7984 3.375 13.5V4.5Z" fill="#FF6B00"/>
<path d="M23.625 21.375H4.5C3.60489 21.375 2.74645 21.7306 2.11351 22.3635C1.48058 22.9964 1.125 23.8549 1.125 24.75V33.75C1.125 34.6451 1.48058 35.5035 2.11351 36.1365C2.74645 36.7694 3.60489 37.125 4.5 37.125H23.625C24.5201 37.125 25.3786 36.7694 26.0115 36.1365C26.6444 35.5035 27 34.6451 27 33.75V24.75C27 23.8549 26.6444 22.9964 26.0115 22.3635C25.3786 21.7306 24.5201 21.375 23.625 21.375ZM24.75 33.75C24.75 34.0484 24.6315 34.3345 24.4205 34.5455C24.2095 34.7565 23.9234 34.875 23.625 34.875H4.5C4.20163 34.875 3.91548 34.7565 3.7045 34.5455C3.49353 34.3345 3.375 34.0484 3.375 33.75V24.75C3.375 24.4516 3.49353 24.1655 3.7045 23.9545C3.91548 23.7435 4.20163 23.625 4.5 23.625H23.625C23.9234 23.625 24.2095 23.7435 24.4205 23.9545C24.6315 24.1655 24.75 24.4516 24.75 24.75V33.75Z" fill="#FF6B00"/>
<path d="M23.625 41.625H4.5C3.60489 41.625 2.74645 41.9806 2.11351 42.6135C1.48058 43.2465 1.125 44.1049 1.125 45V54C1.125 54.8951 1.48058 55.7535 2.11351 56.3865C2.74645 57.0194 3.60489 57.375 4.5 57.375H23.625C24.5201 57.375 25.3786 57.0194 26.0115 56.3865C26.6444 55.7535 27 54.8951 27 54V45C27 44.1049 26.6444 43.2465 26.0115 42.6135C25.3786 41.9806 24.5201 41.625 23.625 41.625ZM24.75 54C24.75 54.2984 24.6315 54.5845 24.4205 54.7955C24.2095 55.0065 23.9234 55.125 23.625 55.125H4.5C4.20163 55.125 3.91548 55.0065 3.7045 54.7955C3.49353 54.5845 3.375 54.2984 3.375 54V45C3.375 44.7016 3.49353 44.4155 3.7045 44.2045C3.91548 43.9935 4.20163 43.875 4.5 43.875H23.625C23.9234 43.875 24.2095 43.9935 24.4205 44.2045C24.6315 44.4155 24.75 44.7016 24.75 45V54Z" fill="#FF6B00"/>
<path d="M51.75 7.875H40.5C40.2017 7.875 39.9155 7.99353 39.7045 8.20451C39.4936 8.41548 39.375 8.70163 39.375 9C39.375 9.29837 39.4936 9.58452 39.7045 9.79549C39.9155 10.0065 40.2017 10.125 40.5 10.125H50.625V28.125H35.3408L36.7954 26.6704C37.0003 26.4582 37.1137 26.174 37.1112 25.879C37.1086 25.5841 36.9903 25.3019 36.7817 25.0933C36.5731 24.8847 36.291 24.7664 35.996 24.7639C35.701 24.7613 35.4168 24.8747 35.2047 25.0796L31.8297 28.4546C31.7249 28.5591 31.6418 28.6833 31.5851 28.82C31.5283 28.9566 31.4991 29.1031 31.4991 29.2511C31.4991 29.3991 31.5283 29.5456 31.5851 29.6823C31.6418 29.819 31.7249 29.9431 31.8297 30.0476L35.2047 33.4226C35.4168 33.6276 35.701 33.7409 35.996 33.7384C36.291 33.7358 36.5731 33.6175 36.7817 33.4089C36.9903 33.2003 37.1086 32.9182 37.1112 32.6232C37.1137 32.3282 37.0003 32.0441 36.7954 31.8319L35.3408 30.375H50.625V48.375H35.3408L36.7954 46.9204C37.0003 46.7082 37.1137 46.424 37.1112 46.129C37.1086 45.8341 36.9903 45.5519 36.7817 45.3433C36.5731 45.1347 36.291 45.0164 35.996 45.0139C35.701 45.0113 35.4168 45.1247 35.2047 45.3296L31.8297 48.7046C31.7249 48.8091 31.6418 48.9333 31.5851 49.07C31.5283 49.2066 31.4991 49.3531 31.4991 49.5011C31.4991 49.6491 31.5283 49.7956 31.5851 49.9323C31.6418 50.069 31.7249 50.1931 31.8297 50.2976L35.2047 53.6726C35.4168 53.8776 35.701 53.9909 35.996 53.9884C36.291 53.9858 36.5731 53.8675 36.7817 53.6589C36.9903 53.4503 37.1086 53.1682 37.1112 52.8732C37.1137 52.5782 37.0003 52.2941 36.7954 52.0819L35.3408 50.625H51.75C52.0484 50.625 52.3346 50.5065 52.5455 50.2955C52.7565 50.0845 52.875 49.7984 52.875 49.5V9C52.875 8.70163 52.7565 8.41548 52.5455 8.20451C52.3346 7.99353 52.0484 7.875 51.75 7.875Z" fill="#FF6B00"/>
</svg>

<svg xmlns="http://www.w3.org/2000/svg" width="72" height="72" fill="none" xmlns:v="https://vecta.io/nano"><path d="M60.75 32.625a10.07 10.07 0 0 0-1.687.153 19.16 19.16 0 0 0-6.34-6.34c.256-1.456.19-2.95-.193-4.378s-1.074-2.754-2.024-3.886-2.137-2.042-3.477-2.667-2.8-.948-4.278-.948-2.938.324-4.278.948-2.526 1.535-3.477 2.667-1.641 2.459-2.024 3.886-.449 2.922-.193 4.378a19.13 19.13 0 0 0-6.34 6.34c-1.456-.256-2.95-.19-4.378.193s-2.754 1.074-3.886 2.024-2.042 2.137-2.667 3.477-.948 2.8-.948 4.278.324 2.938.948 4.278 1.535 2.526 2.667 3.477 2.459 1.641 3.886 2.024 2.922.449 4.378.193a19.13 19.13 0 0 0 6.34 6.34c-.256 1.456-.19 2.95.193 4.377s1.074 2.754 2.024 3.886 2.137 2.042 3.477 2.667 2.8.948 4.278.948 2.938-.324 4.278-.948 2.526-1.535 3.477-2.667 1.641-2.458 2.024-3.886.449-2.922.193-4.377a19.17 19.17 0 0 0 6.34-6.34c1.385.243 2.806.195 4.172-.141s2.646-.953 3.761-1.812 2.037-1.94 2.71-3.175 1.082-2.597 1.199-3.998-.058-2.812-.516-4.142-1.188-2.55-2.143-3.582-2.115-1.854-3.406-2.413-2.684-.843-4.09-.834zm-8.674 24.188c-.775-1.834-2.072-3.398-3.731-4.498s-3.605-1.687-5.596-1.687-3.937.587-5.596 1.687-2.957 2.664-3.731 4.498a16.92 16.92 0 0 1-4.735-4.736c1.833-.775 3.397-2.073 4.497-3.731s1.686-3.605 1.686-5.595-.587-3.936-1.686-5.595-2.664-2.957-4.497-3.731c1.247-1.879 2.857-3.489 4.735-4.736.775 1.834 2.072 3.398 3.731 4.498s3.605 1.687 5.596 1.687 3.937-.587 5.596-1.687 2.957-2.664 3.731-4.498a16.93 16.93 0 0 1 4.736 4.735c-1.834.774-3.399 2.072-4.499 3.731s-1.687 3.605-1.687 5.596.587 3.937 1.687 5.596 2.665 2.957 4.499 3.731a16.93 16.93 0 0 1-4.736 4.735z" fill="#eaeaea"/><path d="M4.5 16.875h28.125c.895 0 1.754-.356 2.386-.989A3.38 3.38 0 0 0 36 13.5v-9c0-.895-.356-1.754-.989-2.386a3.38 3.38 0 0 0-2.386-.989H4.5c-.895 0-1.754.356-2.386.989A3.38 3.38 0 0 0 1.125 4.5v9c0 .895.356 1.754.989 2.387s1.491.989 2.386.989zM3.375 4.5a1.13 1.13 0 0 1 .329-.796c.21-.211.497-.329.796-.329h28.125a1.13 1.13 0 0 1 .795.329c.211.21.33.497.33.796v9c0 .298-.118.585-.33.796s-.497.329-.795.329H4.5c-.298 0-.585-.118-.796-.329s-.329-.497-.329-.796v-9zm20.25 16.875H4.5c-.895 0-1.754.356-2.386.988s-.989 1.491-.989 2.387v9c0 .895.356 1.754.989 2.386a3.38 3.38 0 0 0 2.386.989h19.125c.895 0 1.754-.356 2.387-.989S27 34.645 27 33.75v-9a3.38 3.38 0 0 0-.988-2.387 3.37 3.37 0 0 0-2.387-.988zM24.75 33.75a1.13 1.13 0 0 1-.329.795c-.21.211-.497.33-.796.33H4.5c-.298 0-.585-.118-.796-.33s-.329-.497-.329-.795v-9a1.13 1.13 0 0 1 .329-.796 1.12 1.12 0 0 1 .796-.329h19.125a1.13 1.13 0 0 1 .796.329 1.12 1.12 0 0 1 .329.796v9zm-1.125 7.875H4.5c-.895 0-1.754.356-2.386.989A3.38 3.38 0 0 0 1.125 45v9c0 .895.356 1.754.989 2.386a3.38 3.38 0 0 0 2.386.989h19.125c.895 0 1.754-.356 2.387-.989S27 54.895 27 54v-9c0-.895-.356-1.754-.988-2.386s-1.491-.989-2.387-.989zM24.75 54a1.13 1.13 0 0 1-.329.795c-.21.211-.497.33-.796.33H4.5c-.298 0-.585-.118-.796-.33s-.329-.497-.329-.795v-9a1.13 1.13 0 0 1 .329-.795c.21-.211.497-.33.796-.33h19.125c.298 0 .584.118.796.33a1.12 1.12 0 0 1 .329.795v9zm27-46.125H40.5c-.298 0-.584.119-.795.33s-.33.497-.33.795.119.585.33.795a1.13 1.13 0 0 0 .795.33h10.125v18H35.341l1.455-1.455c.205-.212.318-.496.316-.791s-.121-.577-.329-.786a1.12 1.12 0 0 0-.786-.329c-.295-.002-.579.111-.791.316l-3.375 3.375a1.14 1.14 0 0 0-.245.365c-.057.136-.086.283-.086.431a1.12 1.12 0 0 0 .086.431c.057.137.14.261.245.365l3.375 3.375c.212.205.496.318.791.316s.577-.121.786-.329a1.12 1.12 0 0 0 .329-.786c.002-.295-.111-.579-.316-.791l-1.455-1.457h15.284v18H35.341l1.455-1.455c.205-.212.318-.496.316-.791s-.121-.577-.329-.786a1.12 1.12 0 0 0-.786-.329c-.295-.002-.579.111-.791.316l-3.375 3.375a1.14 1.14 0 0 0-.245.365c-.057.136-.086.283-.086.431a1.12 1.12 0 0 0 .086.431c.057.137.14.261.245.365l3.375 3.375c.212.205.496.318.791.316s.577-.121.786-.329a1.12 1.12 0 0 0 .329-.786c.002-.295-.111-.579-.316-.791l-1.455-1.457H51.75a1.12 1.12 0 0 0 .795-.33 1.13 1.13 0 0 0 .33-.795V9a1.12 1.12 0 0 0-.33-.795 1.13 1.13 0 0 0-.795-.33z" fill="#ff6b00"/></svg>
